packages/sources/icons/src/vitamix/function-line.svg

<svg width="16" height="16" viewBox="0 0 16 16" xmlns="http://www.w3.org/2000/svg"><path d="M2 2H7.33333V7.33333H2V2ZM2 8.66667H7.33333V14H2V8.66667ZM8.66667 2H14V7.33333H8.66667V2ZM8.66667 8.66667H14V14H8.66667V8.66667ZM10 3.33333V6H12.6667V3.33333H10ZM10 10V12.6667H12.6667V10H10ZM3.33333 3.33333V6H6V3.33333H3.33333ZM3.33333 10V12.6667H6V10H3.33333Z"/></svg>

<svg width="16" height="16" xmlns="http://www.w3.org/2000/svg"><path d="M2 2h5.333v5.333H2V2Zm0 6.667h5.333V14H2V8.667ZM8.667 2H14v5.333H8.667V2Zm0 6.667H14V14H8.667V8.667ZM10 3.333V6h2.667V3.333H10ZM10 10v2.667h2.667V10H10ZM3.333 3.333V6H6V3.333H3.333Zm0 6.667v2.667H6V10H3.333Z"/></svg>
